svgs/sharp-regular/bed.svg

<svg xmlns="http://www.w3.org/2000/svg" viewBox="0 0 640 512"><!--! Font Awesome Pro 6.6.0 by @fontawesome - https://fontawesome.com License - https://fontawesome.com/license (Commercial License) Copyright 2024 Fonticons, Inc. --><path d="M48 56l0-24L0 32 0 56 0 360l0 96 0 24 48 0 0-24 0-72 264 0 280 0 0 72 0 24 48 0 0-24 0-96 0-112c0-66.3-53.7-120-120-120l-208 0-24 0 0 24 0 184L48 336 48 56zM592 248l0 88-256 0 0-160 184 0c39.8 0 72 32.2 72 72zM128 216a40 40 0 1 1 80 0 40 40 0 1 1 -80 0zm128 0A88 88 0 1 0 80 216a88 88 0 1 0 176 0z"/></svg>

<svg xmlns="http://www.w3.org/2000/svg" viewBox="0 0 640 512"><!--! Font Awesome Pro 6.4.0 by @fontawesome - https://fontawesome.com License - https://fontawesome.com/license (Commercial License) Copyright 2023 Fonticons, Inc. --><path d="M48 56V32H0V56 360v96 24H48V456 384H312 592v80 24h48V464 360 248c0-66.3-53.7-120-120-120H312 288v24V336H48V56zM592 248v88H336V176H520c39.8 0 72 32.2 72 72zM128 216a40 40 0 1 1 80 0 40 40 0 1 1 -80 0zm128 0A88 88 0 1 0 80 216a88 88 0 1 0 176 0z"/></svg>
